src/categories-icons-sprite/categories/svg-cat-clothes-men-2.svg

<svg width="33" height="33" viewBox="0 0 33 33" fill="none" xmlns="http://www.w3.org/2000/svg">
<path class="p-BBDCFF" d="M25.2012 0L23.2676 7.79883H9.73242L7.79883 0H25.2012Z" fill="#B9DFFC"/>
<path class="p-9ABADB" d="M23.2676 7.79883H16.5V0H25.2012L23.2676 7.79883Z" fill="#A1D1FD"/>
<path class="p-BBDCFF" d="M25.2587 3.93164L25.1234 13.6769L16.4995 30.2929L16.3447 30.583L8.72637 16.1712L7.74023 3.93164H25.2587Z" fill="#B9DFFC"/>
<path class="p-9ABADB" d="M25.2592 3.93164L25.1239 13.6769L16.5 30.2929V3.93164H25.2592Z" fill="#A1D1FD"/>
<path class="p-E0F4FF" d="M7.79883 0V4.89844C7.79883 7.62474 9.73242 9.90638 12.4201 10.3512L15.5332 10.8732V3.93164H14.5664C11.1888 3.93164 8.96292 2.32811 7.79883 0Z" fill="#A1D1FD"/>
<path class="p-BBDCFF" d="M18.4336 3.93164H17.4668V10.8732L20.5799 10.3512C23.2676 9.90638 25.2012 7.62474 25.2012 4.89844V0C24.0299 2.34255 21.7955 3.93164 18.4336 3.93164Z" fill="#B9DFFC"/>
<path class="p-53433F" d="M17.4668 13.5996H15.5332V15.5332H17.4668V13.5996Z" fill="#76B7E2"/>
<path class="p-53433F" d="M17.4668 17.4668H15.5332V19.4004H17.4668V17.4668Z" fill="#76B7E2"/>
<path class="p-3E322E" d="M17.4668 13.5996H16.5V15.5332H17.4668V13.5996Z" fill="#4D98CB"/>
<path class="p-3E322E" d="M17.4668 17.4668H16.5V19.4004H17.4668V17.4668Z" fill="#4D98CB"/>
<path class="p-53433F" d="M33 3.93164V33H0V3.93164H7.74076L8.72689 16.1712L16.3452 30.583L16.5 30.2929L25.1239 13.6769L25.2592 3.93164H33Z" fill="#5FBEFF"/>
<path class="p-3E322E" d="M33 3.93164V33H16.5V30.2929L25.1239 13.6769L25.2592 3.93164H33Z" fill="#4D98CB"/>
<path class="p-966641" d="M25.4146 18.917L27.2903 24.563L16.5008 33L5.71126 24.563L7.58691 18.917L3.71973 15.1996L7.74154 3.93164L16.5008 30.214L25.26 3.93164L29.2818 15.1996L25.4146 18.917Z" fill="#58ADE5"/>
<path class="p-7E5436" d="M25.4139 18.917L27.2895 24.563L16.5 33V30.214L25.2592 3.93164L29.2811 15.1996L25.4139 18.917Z" fill="#5FBEFF"/>
</svg>

<svg width="33" height="33" fill="none" xmlns="http://www.w3.org/2000/svg"><path class="p-BBDCFF" d="M25.201 0l-1.933 7.799H9.732L7.8 0H25.2z" fill="#B9DFFC"/><path class="p-9ABADB" d="M23.268 7.799H16.5V0h8.701l-1.933 7.799z" fill="#A1D1FD"/><path class="p-BBDCFF" d="M25.259 3.932l-.136 9.745L16.5 30.293l-.155.29-7.619-14.412-.986-12.24H25.26z" fill="#B9DFFC"/><path class="p-9ABADB" d="M25.26 3.932l-.136 9.745L16.5 30.293V3.932h8.76z" fill="#A1D1FD"/><path class="p-E0F4FF" d="M7.799 0v4.898a5.491 5.491 0 004.621 5.453l3.113.522V3.932h-.967C11.19 3.932 8.963 2.328 7.8 0z" fill="#A1D1FD"/><path class="p-BBDCFF" d="M18.434 3.932h-.967v6.941l3.113-.522A5.492 5.492 0 0025.2 4.898V0c-1.171 2.343-3.405 3.932-6.767 3.932z" fill="#B9DFFC"/><path class="p-53433F" d="M17.467 13.6h-1.934v1.933h1.934V13.6zM17.467 17.467h-1.934V19.4h1.934v-1.933z" fill="#76B7E2"/><path class="p-3E322E" d="M17.467 13.6H16.5v1.933h.967V13.6zM17.467 17.467H16.5V19.4h.967v-1.933z" fill="#4D98CB"/><path class="p-53433F" d="M33 3.932V33H0V3.932h7.74l.987 12.24 7.618 14.411.155-.29 8.624-16.616.135-9.745H33z" fill="#5FBEFF"/><path class="p-3E322E" d="M33 3.932V33H16.5v-2.707l8.624-16.616.135-9.745H33z" fill="#4D98CB"/><path class="p-966641" d="M25.415 18.917l1.875 5.646L16.5 33 5.712 24.563l1.876-5.646L3.72 15.2 7.742 3.932 16.5 30.214 25.26 3.932 29.282 15.2l-3.867 3.717z" fill="#58ADE5"/><path class="p-7E5436" d="M25.414 18.917l1.875 5.646L16.5 33v-2.786l8.76-26.282L29.28 15.2l-3.867 3.717z" fill="#5FBEFF"/></svg>
